X:1
T:Title
%%score { 1 | 2 }
L:1/8
M:6/8
K:F
V:1 treble nm="Grand Piano"
V:2 bass 
V:1
 z3 z2[Q:1/4=81] [Ac] | [Ac]>[GB][FA] [EG]DE | F3 C2 F | [EG][FA][GB] [GB][FA][EG] | %4
 [FA]3- [FA]2 [Ac] | [Ac]>[GB][FA] [EG]DE | F3 C2 F | [DG][DA][DB] [CE][EA]>[EG] |[M:5/8] F-F- F3 | %9
[M:1/8] c |[M:3/4] [Fd][Fd] [Fd][DB]- [DB]/[Ec]/[Fd] | c2 c A3 | %12
 [GB][GB] [GB][EG]- [EG]/[FA]/[GB] | [Ac]2 [GB] [FA]3 | [Fd][Fd] [Fd] [Fd]3 | %15
 [Fc][CFc] [FAc] [FAc]2 [CFc] | [DFc][DFB] [B,D][G,CE] [CEA]>[B,EG] |[M:5/8] [A,F]-[A,F]- [A,F]3 |] %18
V:2
 z3 z2 [F,C] | [F,C]>[F,C][F,C] [C,B,][C,B,][C,B,C] | [F,A,C]3 [F,A,]2 [F,A,C] | %3
 [C,C][C,C][C,C] [C,C][C,C][C,C] | [F,C]3- [F,C]2 [F,C] | [F,C]>[F,C][F,C] [C,B,][C,B,][C,B,C] | %6
 [F,A,C]3 [F,A,]2 [F,A,C] | [B,,G,][A,,^F,][G,,G,] [C,G,][C,C]>[C,B,] | %8
[M:5/8] [F,A,]-[F,A,]- [F,A,]3 |[M:1/8] [F,A,F] | %10
[M:3/4] [B,,B,][D,B,] [F,B,][B,,F,]- [B,,F,]/[B,,F,]/[B,,B,] | [F,A,F]2 [F,A,F] [F,CF]3 | %12
 [C,C][E,C] [G,C][C,C]- [C,C]/[C,C]/[C,C] | [F,C]2 [F,C] [F,C]3 | [B,,B,][D,B,] [F,B,] [B,,B,]3 | %15
 [F,A,]A, C F,2 A,, | B,,B,, F,,C, C,>C, |[M:5/8] F,-F,- F,3 |] %18

